!!!!SEGMENT: pl-wtm--r-66-n--003_noskowski-zygmunt--piesni-ludowe-op-51-predzej-koniku.krn
!!!id: 18xx:2281
!!!COM: Noskowski, Zygmunt
!!!COM-rism: pe106604
!!!CDT: 1846/05/02-1909/07/23
!!!CNT: Polish
!!!OTL: Pieśni ludowe op. 51 - Prędzej koniku
!!!PDT:
!!!SMS-siglum: PL-Wtm
!!!SMS-shelfmark: R 66/N
!!!SMS-variant:
!!!SMS-altvar:
!!!NIFC-rismID: 1001096662
!!!OMD: Moderato cantabile.
!!!system-decoration: {(s1,s2)}
**kern	**text	**text	**dynam	**kern	**text	**text	**dynam
*part2	*part2	*part2	*part2	*part1	*part1	*part1	*part1
*staff2	*staff2	*staff2	*	*staff1	*staff1	*staff1	*
*I"Basy	*	*	*	*I"Tenory	*	*	*
*I'B	*	*	*	*I'T	*	*	*
*clefF4	*	*	*	*clefGv2	*	*	*
*k[b-e-a-d-g-]	*	*	*	*k[b-e-a-d-g-]	*	*	*
*M4/4	*	*	*	*M4/4	*	*	*
*met(c)	*	*	*	*met(c)	*	*	*
*>[A,B,B,A,B,B]	*	*	*	*>[A,B,B,A,B,B]	*	*	*
=1	=1	=1	=1	=1	=1	=1	=1
*^	*	*	*	*	*	*	*
*	*	*	*	*	*^	*	*	*
*	*	*	*	*	*	*	*	*	*^
*>A	*>A	*	*	*	*>A	*>A	*	*	*	*
!!LO:TX:a:t=P:problem:all\left, middle or right:problem
!	!	!	!	!	!LO:TX:t=P:problem:w źródle brak przenośnika oktawowego przy kluczu	!	!	!	!	!
!	!	!	!	!	!LO:TX:t=P:problem:dynamika inna dla każdej zwrotki	!	!	!	!	!
!	!	!	!	!	!	!	!	!	!LO:DY:b:rj	!LO:DY:b:Bi:t=%s.:rj
4F/	4D-\	.	.	.	4A-/	4A-\	1. Prę-	2. Oj!	f	p
4F/	4D-\	.	.	.	4d-/	4A-\	-dzej	tam	.	.
4F/	4F\	.	.	.	4d-/	4A-\	prę-	in-	.	.
4A-/	4D-\	.	.	.	4f/	4d-\	-dzej	-ni	.	.
*	*	*	*	*	*	*	*	*	*v	*v
=2	=2	=2	=2	=2	=2	=2	=2	=2	=2
2B-/	2G-\	.	.	.	2e-/	2d-\	ko-	już	.
4B-/	4G-\	.	.	.	4e-/	4d-\	-ni-	goś-	.
4A-/	4F\	.	.	.	4f/	4d-\	-ku,	-cie	.
=3	=3	=3	=3	=3	=3	=3	=3	=3	=3
4B-/	4E-\	.	.	.	4g-/	4d-\	Cze-	Pi-	.
4G-/	4E-\	.	.	.	4f/	4d-\	-ka	-wo	.
4G-/	4AA-\	.	.	.	4e-/	4c\	pan-	miód	.
4A-/	4AA-\	.	.	.	4f/	4c\	-na	wy-	.
=4	=4	=4	=4	=4	=4	=4	=4	=4	=4
2F/	2D-\	.	.	.	2d-/	2A-\	mło-	-pi-	.
2F/	2D-\	.	.	.	2A-/	2A-\	-da,	-li,	.
!!LO:LB:g=original
=5	=5	=5	=5	=5	=5	=5	=5	=5	=5
4F/	4D-\	.	.	.	4A-/	4A-\	Spiesz	Ko-	.
4A-/	4F\	.	.	.	4d-/	4d-\	się	-ni-	.
4B-/	4Gn\	.	.	.	4d-/	4d-\	do	-ka-	.
4Gn/	4E-\	.	.	.	4f/	4d-\	mej	-mi	.
=6	=6	=6	=6	=6	=6	=6	=6	=6	=6
2Gn/	2BB-\	.	.	.	2e-/	2d-\	je-	swo-	.
4G-X/	4AAn\	.	.	.	4e-/	4d-\	-dy-	-je-	.
4G-/	4AA\	.	.	.	4f/	4d-\	-nej,	-mi	.
=7	=7	=7	=7	=7	=7	=7	=7	=7	=7
4E-/	4AA-X\	.	.	.	4g-/	4c\	To	O-	.
4F/	4AA-\	.	.	.	4f/	4c\	ci	-wie-	.
4A-/	4AA-\	.	.	.	4e-/	4c\	sian-	-sek	.
4G-/	4AA-\	.	.	.	4f/	4c\	-ka	skar-	.
=8	=8	=8	=8	=8	=8	=8	=8	=8	=8
(>4F/	(<4D-\	.	.	.	(<4d-/	2A-\	po-	-mi-	.
4E-/)	4AA-\)	.	.	.	4c/)	.	.	.	.
4F/	4D-\	.	.	.	4d-/	4A-\	-da.	-li.	.
4r	4ryy	.	.	.	4r	4ryy	.	.	.
=9!|:	=9!|:	=9!|:	=9!|:	=9!|:	=9!|:	=9!|:	=9!|:	=9!|:	=9!|:
*	*	*	*	*	*	*	*	*	*^
*>B	*>B	*	*	*	*>B	*>B	*	*	*	*
!	!	!	!	!	!	!	!	!	!LO:DY:b:rj	!LO:DY:b:rj
4G-/	4BB-\	.	.	.	4g-/	4d-\	Oj!	Jaś	p	f
4G-/	4BB-\	.	.	.	4f/	4d-\	nie	nie	.	.
4G-/	4C\	.	.	.	4e-/	4A-\	po-	słu-	.	.
4E-/	4C\	.	.	.	4A-/	4G-\	-da	-chał	.	.
!!LO:LB:g=original
*	*	*	*	*	*	*	*	*	*v	*v
=10	=10	=10	=10	=10	=10	=10	=10	=10	=10
2F/	2D-\	.	.	.	2d-/	2F\	ci	po-	.
4G-/	4E-\	.	.	.	4d-/	4G-\	Ma-	-je-	.
4A-/	4F\	.	.	.	4c-X/	4A-\	-ryś,	-chał,	.
=11	=11	=11	=11	=11	=11	=11	=11	=11	=11
!	!	!	!	!LO:HP:b	!	!	!	!	!
4G-/	4G-\	.	.	<	4B-/	4B-\	sian-	Nie	<
4G-/	4F\	.	.	.	4d-/	4G-\	-ka	za-	.
4B-/	4E-\	.	.	.	4g-/	4e-\	już	-stał	.
4B-/	4C\	.	.	[	4g-/	4e-\	nie	dziew-	[
=12	=12	=12	=12	=12	=12	=12	=12	=12	=12
!	!	!	!	!LO:HP:b	!	!	!	!	!
2An/	2F\	.	.	>	2g-/	2e-\	po-	-czę-	>
4B-/	4BB-\	.	.	]	4f/	4d-\	-da,	-cia,	]
4r	8D-\	1. Bo	2. A-	.	4rf	4rB	.	.	.
.	8E-\	na	-ni	.	.	.	.	.	.
=13	=13	=13	=13	=13	=13	=13	=13	=13	=13
!	!	!	!	!	!	!	!	!	!LO:DY:b:rj
4A-/	2D-\	łą-	oj-	.	4f/	4c-X\	Bo	A	mf
4F/	.	.	.	.	4a-/	4c-\	na	ni	.
4A-/	4D-\	kach	ca	.	4f/	4c-\	łą-	Oj-	.
4A-/	4F\	Ma-	ni	.	4d-/	4c-\	-kach	-ca	.
!!LO:LB:g=original
=14	=14	=14	=14	=14	=14	=14	=14	=14	=14
2G-/	2G-\	-ry-	mat-	>	2g-/	2B-\	Ma-	ni	>
4G-/	2GG-\	-si,	-ki,	.	4e-/	4B-\	-ry-	mat-	.
4E-/	.	.	.	]	4d-/	4An\	-si,	-ki,	]
=15	=15	=15	=15	=15	=15	=15	=15	=15	=15
*	*	*	*	*	*	*	*	*	*^
!	!	!	!	!	!	!	!	!	!	!LO:DY:b:rj
4E-/	4AA-\	.	.	.	4c/	4A-X\	Za-	Wszys-	.	p
4BB-/	4AA-\	.	.	>	4e-/	4G-\	-bra-	-cy	>	.
4C/	4AA-\	.	.	.	4A-/	4G-\	-ła	są	.	.
4E-/	4AA-\	.	.	.	4c/	4G-\	je	u	.	.
*	*	*	*	*	*	*	*	*	*v	*v
=16	=16	=16	=16	=16	=16	=16	=16	=16	=16
!	!	!	!	!LO:DY:b:rj	!	!	!	!	!LO:DY:b:rj
(>4F/	(<4D-\	.	.	] p	2d-/	(<4A-\	wo-	zię-	] p
4G-/)	4GG-\)	.	.	.	.	4B-\)	.	.	.
2F;>/	2D-;<\	.	.	.	2d-;>/	2A-;<\	-da.	-cia.	.
*v	*v	*	*	*	*	*	*	*	*
*	*	*	*	*v	*v	*	*	*
=:|!	=:|!	=:|!	=:|!	=:|!	=:|!	=:|!	=:|!
*-	*-	*-	*-	*-	*-	*-	*-
!!title: @{OTL};
!!!RDF**kern: > = above
!!!RDF**kern: < = below
!!!RDF**dynam: > = "dim", fontstyle= "bold-italic"
!!!RDF**dynam: < = "cresc", fontstyle= "bold-italic"
!!!RDF**kern: | = vertical stroke
!!!RDF**kern: N = linked
!!!RDF**kern: i = editorial accidental
!!!EED: Wojciech Jakubiak-Danek
!!!EST: 2021-06-09
!!!URL-scan: http://repozytorium.nifc.pl/skany/pl-wtm-nut--r66n
!!!ONB-nifc: UWAGA: na podstawie partytur z folderu pl-wtm-r66n
!!!ENC: Tomasz Grochalski
!!!END: 2021-06-01
